packages/core/src/svgs/sbd.svg

<svg width="24" height="24" viewBox="0 0 24 24" fill="none" xmlns="http://www.w3.org/2000/svg">
<g clip-path="url(#clip0_31_18401)">
<path d="M0 0H24V24H0V0Z" fill="#F0F3FA"/>
<path d="M7.12281 6.68549C6.53138 7.18263 5.91852 7.79978 5.66566 8.54978C5.38281 9.43263 5.78566 10.3326 6.16709 11.1212C6.55281 11.9226 6.96852 12.7112 7.33281 13.5383C7.61995 14.1898 8.01852 14.9526 7.92424 15.6855C7.84709 16.2041 7.67566 16.7012 7.58138 17.2198C7.50424 17.5669 7.82995 17.2198 7.94138 17.1255C8.61424 16.5512 9.33852 15.8955 9.60424 15.0126C9.71618 14.5926 9.68296 14.1471 9.50995 13.7483C9.35995 13.3455 9.18424 12.9598 9.01281 12.5569C8.64852 11.7512 8.26709 10.9455 7.88566 10.1398C7.73138 9.85263 7.58138 9.54406 7.44424 9.23978C7.31039 8.9094 7.23358 8.55871 7.21709 8.20263C7.19995 7.9112 7.19995 7.64549 7.23424 7.35835C7.25566 7.14406 7.31138 6.95549 7.33281 6.7412C7.34995 6.62978 7.25566 6.5912 7.11852 6.68549H7.12281ZM15.8742 6.68549C15.2828 7.18692 14.67 7.79978 14.4214 8.54978C14.1342 9.43263 14.5371 10.3326 14.9185 11.1212C15.3042 11.9269 15.72 12.7112 16.0842 13.5383C16.3714 14.1898 16.77 14.9569 16.6757 15.6855C16.6028 16.2041 16.4271 16.7055 16.3328 17.2241C16.2557 17.5669 16.5814 17.2241 16.6971 17.1255C17.3657 16.5512 18.09 15.8998 18.36 15.0169C18.4715 14.5951 18.4368 14.1479 18.2614 13.7483C18.1114 13.3455 17.94 12.9641 17.7642 12.5569C17.3968 11.7474 17.021 10.9416 16.6371 10.1398C16.4871 9.85263 16.3328 9.54406 16.2 9.23978C16.065 8.90954 15.9868 8.5589 15.9685 8.20263C15.9514 7.91549 15.9514 7.64549 15.99 7.35835C16.0071 7.14406 16.0628 6.95549 16.0842 6.7412C16.1057 6.62978 16.0071 6.58692 15.87 6.68549H15.8742Z" fill="#1C509B"/>
<path d="M11.4128 5.2284C10.77 5.78554 10.0671 6.45412 9.68142 7.24269C9.41584 7.77065 9.35479 8.37815 9.50999 8.9484C9.70701 9.64895 9.94894 10.3361 10.2343 11.0055C10.7657 12.2913 11.4686 13.4955 11.9828 14.8027C12.1671 15.2613 12.3686 15.7798 12.4114 16.3027C12.4457 16.9327 12.24 17.6055 12.0771 18.197C12.0386 18.3684 11.9314 18.5998 11.9486 18.7755C11.9657 18.9084 12.0386 18.8527 12.1157 18.7927C12.4329 18.5355 12.7329 18.2655 13.0157 17.9698C13.7743 17.2198 14.6443 16.2213 14.5671 15.0555C14.5286 14.5713 14.31 14.1127 14.1257 13.6713C13.92 13.157 13.6971 12.6555 13.4828 12.1541C13.0757 11.2113 12.6514 10.2941 12.2057 9.3684C12.06 9.04697 11.8757 8.7384 11.7643 8.41269C11.6059 7.97517 11.519 7.51498 11.5071 7.04983C11.49 6.70697 11.5071 6.34269 11.5457 5.99554C11.5629 5.76412 11.6357 5.55412 11.6357 5.32269C11.6914 5.11269 11.58 5.09554 11.4128 5.2284Z" fill="#4BA2F2"/>
</g>
<defs>
<clipPath id="clip0_31_18401">
<rect width="24" height="24" fill="white"/>
</clipPath>
</defs>
</svg>

<svg xmlns="http://www.w3.org/2000/svg" width="24" height="24" fill="none" viewBox="0 0 24 24"><g clip-path="url(#a)"><path fill="#F0F3FA" d="M0 0h24v24H0z"/><path fill="#1C509B" d="M7.123 6.685C6.53 7.183 5.919 7.8 5.666 8.55c-.283.883.12 1.783.501 2.571.386.802.802 1.59 1.166 2.417.287.652.686 1.415.591 2.147-.077.52-.248 1.016-.343 1.535-.077.347.249 0 .36-.095.673-.574 1.398-1.23 1.663-2.112.112-.42.079-.866-.094-1.265-.15-.402-.326-.788-.497-1.191-.364-.806-.746-1.612-1.127-2.417a15 15 0 0 1-.442-.9 3.2 3.2 0 0 1-.227-1.037 4.6 4.6 0 0 1 .017-.845c.022-.214.077-.403.099-.617.017-.111-.077-.15-.214-.056zm8.751 0c-.591.502-1.204 1.115-1.453 1.865-.287.883.116 1.783.498 2.571.385.806.801 1.59 1.165 2.417.287.652.686 1.419.592 2.147-.073.52-.249 1.02-.343 1.54-.077.342.248 0 .364-.1.669-.574 1.393-1.225 1.663-2.108a1.93 1.93 0 0 0-.099-1.269c-.15-.402-.321-.784-.497-1.191q-.55-1.214-1.127-2.417c-.15-.287-.304-.596-.437-.9a3.2 3.2 0 0 1-.231-1.037 4.3 4.3 0 0 1 .021-.845c.017-.214.073-.403.094-.617.022-.111-.077-.154-.214-.056z"/><path fill="#4BA2F2" d="M11.413 5.228c-.643.558-1.346 1.226-1.732 2.015a2.4 2.4 0 0 0-.171 1.705q.296 1.052.724 2.057c.532 1.286 1.235 2.49 1.749 3.798.184.458.386.977.428 1.5.035.63-.171 1.302-.334 1.894-.038.171-.146.403-.128.579.017.132.09.077.167.017.317-.258.617-.527.9-.823.758-.75 1.628-1.749 1.551-2.914-.038-.485-.257-.943-.441-1.385-.206-.514-.429-1.015-.643-1.517a74 74 0 0 0-1.277-2.786c-.146-.321-.33-.63-.442-.955a4.3 4.3 0 0 1-.257-1.363c-.017-.343 0-.707.039-1.054.017-.232.09-.442.09-.673.055-.21-.056-.227-.223-.095"/></g><defs><clipPath id="a"><path fill="#fff" d="M0 0h24v24H0z"/></clipPath></defs></svg>
